icons/domestic_worker.svg

<svg width="48" height="48" viewBox="0 0 48 48" fill="none" xmlns="http://www.w3.org/2000/svg">
<path fill-rule="evenodd" clip-rule="evenodd" d="M6 37C6 33.1224 12.1457 30.6968 17.842 29.6314C18.2311 29.5587 18.6182 29.4922 19.001 29.4321C19.0004 29.4547 19.0001 29.4773 19.0001 29.5C19.0001 31.4301 21.232 32.9953 23.9877 33H24.0124C26.7682 32.9953 29.0001 31.4301 29.0001 29.5C29.0001 29.4855 28.9999 29.4709 28.9997 29.4564L28.9991 29.4321C29.3819 29.4922 29.7689 29.5586 30.1579 29.6314C30.4181 29.6801 30.6792 29.7316 30.9406 29.7859C36.4028 30.9213 42 33.2995 42 37V42H6V37ZM8 37C8 36.1698 8.74257 35.0131 11.1531 33.8024C12.609 33.0711 14.3916 32.4727 16.2495 32.0188C16.0878 32.4827 16 32.9811 16 33.5C16 35.9853 18.0147 38 20.5 38C21.9136 38 23.175 37.3482 24 36.3287C24.825 37.3482 26.0864 38 27.5 38C29.9853 38 32 35.9853 32 33.5C32 32.9811 31.9122 32.4827 31.7505 32.0188C33.6084 32.4727 35.391 33.0711 36.8469 33.8024C39.2574 35.0131 40 36.1698 40 37V40H36V36H34V40H14V36H12V40H8V37ZM22.5789 34.889C21.3685 34.6973 20.2432 34.2613 19.3175 33.6134C18.903 33.3231 18.5127 32.9766 18.1749 32.5791C18.0619 32.8644 18 33.1751 18 33.5C18 34.8807 19.1193 36 20.5 36C21.3667 36 22.1305 35.559 22.5789 34.889ZM25.4211 34.889C25.8696 35.559 26.6333 36 27.5 36C28.8807 36 30 34.8807 30 33.5C30 33.1751 29.9381 32.8644 29.8251 32.5791C29.8036 32.6044 29.7818 32.6295 29.7599 32.6545C29.4374 33.0205 29.0706 33.3416 28.6825 33.6134C27.7568 34.2613 26.6315 34.6973 25.4211 34.889Z" fill="black"/>
<path fill-rule="evenodd" clip-rule="evenodd" d="M28.6217 7.52742L24.0001 5.94287L19.3784 7.52744C17.3575 8.22033 16 10.1207 16 12.2571L16 19H16.0175C16.0059 19.1653 16 19.332 16 19.5C16 23.6421 19.5817 27 24 27C28.4183 27 32 23.6421 32 19.5C32 19.332 31.9941 19.1653 31.9825 19H32L32 12.2572C32 10.1207 30.6426 8.22032 28.6217 7.52742ZM24 12C21.6106 12 19.4659 12.982 18 14.5391L18 12.2572C18 10.9753 18.8145 9.83506 20.0271 9.41933L24.0001 8.05716L27.973 9.41931C29.1856 9.83505 30 10.9753 30 12.2572L30 14.5391C28.5341 12.9821 26.3894 12 24 12ZM24 25C27.4373 25 30 22.4179 30 19.5C30 16.5821 27.4373 14 24 14C20.5627 14 18 16.5821 18 19.5C18 22.4179 20.5627 25 24 25Z" fill="black"/>
</svg>

<svg
  xmlns="http://www.w3.org/2000/svg"
  width="24"
  height="24"
  viewBox="0 0 24 24"
  fill="none"
  stroke="currentColor"
  stroke-width="2"
  stroke-linecap="round"
  stroke-linejoin="round"
>
  <path
    fill-rule="evenodd"
    d="M6 37c0-3.878 6.146-6.303 11.842-7.369q.585-.108 1.159-.199v.068c0 1.93 2.231 3.495 4.987 3.5h.024C26.768 32.995 29 31.43 29 29.5v-.068a40 40 0 0 1 1.94.354C36.404 30.92 42 33.3 42 37v5H6zm2 0c0-.83.743-1.987 3.153-3.198 1.456-.73 3.239-1.33 5.097-1.783a4.5 4.5 0 0 0 7.75 4.31 4.5 4.5 0 0 0 7.75-4.31c1.858.454 3.641 1.052 5.097 1.783C39.257 35.013 40 36.17 40 37v3h-4v-4h-2v4H14v-4h-2v4H8zm14.579-2.111c-1.21-.192-2.336-.628-3.262-1.276a6 6 0 0 1-1.142-1.034 2.5 2.5 0 0 0 4.404 2.31m2.842 0a2.5 2.5 0 0 0 4.404-2.31l-.065.075c-.323.366-.69.688-1.078.96-.925.647-2.05 1.083-3.26 1.275"
    clip-rule="evenodd"
  />
  <path
    fill-rule="evenodd"
    d="M28.622 7.527 24 5.943l-4.622 1.584A5 5 0 0 0 16 12.257V19h.017a7 7 0 0 0-.017.5c0 4.142 3.582 7.5 8 7.5s8-3.358 8-7.5q0-.252-.017-.5H32v-6.743a5 5 0 0 0-3.378-4.73M24 12c-2.39 0-4.534.982-6 2.54v-2.283a3 3 0 0 1 2.027-2.838L24 8.057l3.973 1.362A3 3 0 0 1 30 12.257v2.282C28.534 12.982 26.39 12 24 12m0 13c3.437 0 6-2.582 6-5.5S27.437 14 24 14s-6 2.582-6 5.5 2.563 5.5 6 5.5"
    clip-rule="evenodd"
  />
</svg>
